symbolic/16x16/actions/text-remove-from-path.svg

<svg xmlns="http://www.w3.org/2000/svg" width="16" height="16"><defs><style id="current-color-scheme" type="text/css"></style></defs><path style="fill:currentColor;color:#323a41" d="M10 10v1.414L11.586 13 10 14.586V16h1.414L13 14.414 14.586 16H16v-1.414L14.414 13 16 11.414V10h-1.414L13 11.586 11.414 10zM7 9c-3.878 0-7 3.122-7 7h1c0-3.324 2.676-6 6-6h2V9zm2-9v8h1v-.502A2.5 2.5 0 0 0 11.5 8 2.5 2.5 0 0 0 14 5.5 2.5 2.5 0 0 0 11.5 3a2.5 2.5 0 0 0-1.5.504V0zm2.5 4A1.5 1.5 0 0 1 13 5.5 1.5 1.5 0 0 1 11.5 7 1.5 1.5 0 0 1 10 5.5 1.5 1.5 0 0 1 11.5 4zm-7-1A2.5 2.5 0 0 0 2 5.5 2.5 2.5 0 0 0 4.5 8 2.5 2.5 0 0 0 6 7.496V8h1V3H6v.502A2.5 2.5 0 0 0 4.5 3zm0 1A1.5 1.5 0 0 1 6 5.5 1.5 1.5 0 0 1 4.5 7 1.5 1.5 0 0 1 3 5.5 1.5 1.5 0 0 1 4.5 4z"/></svg>

<svg xmlns="http://www.w3.org/2000/svg" width="16" height="16" version="1.1">
 <defs>
  <style id="current-color-scheme" type="text/css">
   .ColorScheme-Text { color:#323a41; } .ColorScheme-Highlight { color:#4285f4; } .ColorScheme-NeutralText { color:#ff9800; } .ColorScheme-PositiveText { color:#4caf50; } .ColorScheme-NegativeText { color:#f44336; }
  </style>
 </defs>
 <path style="fill:currentColor" class="ColorScheme-Text" d="M 10,10 V 11.414 L 11.586,13 10,14.586 V 16 H 11.414 L 13,14.414 14.586,16 H 16 V 14.586 L 14.414,13 16,11.414 V 10 H 14.586 L 13,11.586 11.414,10 Z M 7,9 C 3.122,9 0,12.122 0,16 H 1 C 1,12.676 3.676,10 7,10 H 9 V 9 Z M 9,0 V 5.5 8 H 10 V 7.498 A 2.5,2.5 0 0 0 11.5,8 2.5,2.5 0 0 0 14,5.5 2.5,2.5 0 0 0 11.5,3 2.5,2.5 0 0 0 10,3.5039 V 0 Z M 11.5,4 A 1.5,1.5 0 0 1 13,5.5 1.5,1.5 0 0 1 11.5,7 1.5,1.5 0 0 1 10,5.5 1.5,1.5 0 0 1 11.5,4 Z M 4.5,3 A 2.5,2.5 0 0 0 2,5.5 2.5,2.5 0 0 0 4.5,8 2.5,2.5 0 0 0 6,7.4961 V 8 H 7 V 5.5 3 H 6 V 3.502 A 2.5,2.5 0 0 0 4.5,3 Z M 4.5,4 A 1.5,1.5 0 0 1 6,5.5 1.5,1.5 0 0 1 4.5,7 1.5,1.5 0 0 1 3,5.5 1.5,1.5 0 0 1 4.5,4 Z"/>
</svg>
